X:1
T:Title
%%score { ( 1 3 ) | ( 2 4 5 ) }
L:1/8
Q:1/4=94
M:4/4
K:Db
V:1 treble nm="Grand Piano"
V:3 treble 
V:2 treble 
V:4 treble 
V:5 treble 
V:1
 F3 F FFFF | [FA]8 | G3 G GGGG | F6 d2- | d2 z2 z4 | [Ge]2 [Gc]2 z GFE | %6
w: J.~E.~Gould * * * * *||||||
 .[DFA]2 .[DFA]2 [FA]2 .[DFA]2 | .[EGA]2 .[CEA]2 [CA]GFE | [DF]f[df]d [Bd]B[GB]d | z4 [DA]4 | %10
w: ||||
 [B,DG]2 [CG]2 [DF]2 [FA]G[Q:1/4=93][Q:1/4=91][Q:1/4=90][Q:1/4=88][Q:1/4=87] | %11
w: |
 [DF]2[K:bass] [CE]2 z4[Q:1/4=86][Q:1/4=84][Q:1/4=83][Q:1/4=82][Q:1/4=80][Q:1/4=79][Q:1/4=77][Q:1/4=76][Q:1/4=75][Q:1/4=73][Q:1/4=72] |] %12
w: |
V:2
 D3 D DDDD | D,3 D, D,D,D,D, | E3 E EE[A,CE][K:bass][A,CE] | z4 z2 F2- | F2 z2 z4 | %5
 .[A,C]2 .[A,E]2 [A,CE]ED[K:bass]A, | .D,2 .D,2 .D,2 .D,2 | .A,2 .A,2 z EDA, | %8
 z[K:treble] d z B[K:bass] z G z[K:treble] B | A,,2 A,2 F,2 F,F, | z4 D,2 z E | %11
 A,,A,,A,,A,, [D,F,]4 |] %12
V:3
 x8 | D3 D DDDD | x8 | z A,A,A, A,2 z2 | .A,2 [Fd]2 [Af]2 [Fd]2 | z4 A4 | x8 | x8 | x8 | %9
 [DF]2 [CE]2 z2 A,A, | x8 | z[K:bass] A,G,G, D4 |] %12
V:4
 x8 | x8 | [A,C]6 z2[K:bass] | [D,D]D,D,D, D,2 z2 | .D,2 .[D,A,]2 .[D,D]2 .[D,A,]2 | x7[K:bass] x | %6
 x8 | z4 A,4 | D,2[K:treble] B,,2[K:bass] G,,2 G,,2[K:treble] | x8 | z2 A,4 z2 | x8 |] %12
V:5
 x8 | x8 | x7[K:bass] x | x8 | x8 | x7[K:bass] x | x8 | x8 | %8
 x[K:treble] x3[K:bass] x3[K:treble] x | x8 | E,4 z2 G,,2 | x8 |] %12

